public/images/sidebar/transactions.svg

<svg width="16" height="16" viewBox="0 0 24 24" fill="none" xmlns="http://www.w3.org/2000/svg">
    <path fill-rule="evenodd" clip-rule="evenodd" d="M21.7008 13.297C21.3118 12.907 20.6757 12.907 20.2867 13.297L17.9967 15.587V6C17.9967 5.45 17.5468 5 16.9967 5C16.4457 5 15.9968 5.45 15.9968 6V15.587L13.7057 13.297C13.3168 12.908 12.6808 12.908 12.2918 13.297C11.9028 13.686 11.9028 14.322 12.2918 14.711L16.2898 18.708C16.3478 18.768 16.4218 18.8 16.4897 18.841C16.5317 18.866 16.5658 18.902 16.6118 18.922C16.6528 18.94 16.6987 18.94 16.7417 18.95C16.9537 19.007 17.1778 19.006 17.3818 18.922C17.4258 18.903 17.4588 18.868 17.4998 18.843C17.5698 18.802 17.6428 18.769 17.7038 18.708L21.7008 14.711C22.0898 14.322 22.0898 13.686 21.7008 13.297Z" fill="#162D45"/>
    <path fill-rule="evenodd" clip-rule="evenodd" d="M11.7008 10.6924C11.3118 11.0824 10.6757 11.0824 10.2867 10.6924L7.99675 8.40244V17.9894C7.99675 18.5394 7.54675 18.9894 6.99675 18.9894C6.44575 18.9894 5.99675 18.5394 5.99675 17.9894V8.40244L3.70575 10.6924C3.31675 11.0814 2.68075 11.0814 2.29175 10.6924C1.90275 10.3034 1.90275 9.66744 2.29175 9.27844L6.28975 5.28144C6.34775 5.22144 6.42175 5.18944 6.48975 5.14844C6.53175 5.12344 6.56575 5.08744 6.61175 5.06744C6.65275 5.04944 6.69875 5.04944 6.74175 5.03944C6.95375 4.98244 7.17775 4.98344 7.38175 5.06744C7.42575 5.08644 7.45875 5.12144 7.49975 5.14644C7.56975 5.18744 7.64275 5.22044 7.70375 5.28144L11.7008 9.27844C12.0898 9.66744 12.0898 10.3034 11.7008 10.6924Z" fill="#162D45"/>
</svg>

<svg width="16" height="16" viewBox="0 0 24 24" fill="none" xmlns="http://www.w3.org/2000/svg"><path fill-rule="evenodd" clip-rule="evenodd" d="M21.7 13.297a1 1 0 00-1.413 0l-2.29 2.29V6c0-.55-.45-1-1-1-.551 0-1 .45-1 1v9.587l-2.291-2.29a1.002 1.002 0 00-1.414 0 1.003 1.003 0 000 1.414l3.998 3.997c.058.06.132.092.2.133.042.025.076.061.122.081.04.018.087.018.13.028a.995.995 0 00.64-.028c.044-.019.077-.054.118-.079.07-.041.143-.074.204-.135l3.997-3.997a1.003 1.003 0 000-1.414zM11.7 10.692a1 1 0 01-1.413 0l-2.29-2.29v9.587c0 .55-.45 1-1 1-.551 0-1-.45-1-1V8.402l-2.291 2.29a1.003 1.003 0 01-1.414 0 1.002 1.002 0 010-1.414L6.29 5.281c.058-.06.132-.092.2-.133.042-.025.076-.06.122-.08.04-.019.087-.019.13-.029a.995.995 0 01.64.028c.044.02.077.054.118.08.07.04.143.073.204.134L11.7 9.278a1.002 1.002 0 010 1.414z" fill="#162D45"/></svg>
